!!!OTL: Maoshan laile Chensiling
!!!ARE: Asia, China,ÿJiangsu Zenjiang
!! III, 456
!!!SCT: C2021
!!!YEM: Copyright 1995, estate of Helmut Schaffrath.
**kern
*ICvox
*Ivox
*M2/4
*k[f#]
*G:
{8a
8a
8dd
16dd
16b
=1
8a
16dd
16b
4a
=2
4e}
{8g
8g
=3
4a
8dd
16dd
16b
=4
4a
4e}
=5
{8dd
16dd
16dd
8dd
8b
=6
4a
4e}
=7
{8.b
16ee
4dd
=8
8.ee
16b
4dd}
=9
{8e
8e
8e
8a
=10
16g
16a
16g
16e
4d}
=11
{8e
8a
8g
8e
=12
8.e
16B
4d}
=13
{8g
8g
8g
8d
=14
8g
8g
8g
8d}
=15
{8e
8e
8e
8a
=16
16g
16a
16g
16e
4d}
=17
{8e
8a
8g
8e
=18
8ee
4ee
8b
=19
[2dd
=20
2dd]}
==
!!!AGN: Haozi, Maoshan haozi
!!!AMT: simple duple
!!!AIN: vox
!!!EED: Helmut Schaffrath
!!!EEV: 1.0
*-
!!!ONB: Tied note syntax fixed by Craig Sapp, 2004/05/03/
